X:15334
T:Sherlocks
R:Jig
S:Paddy Canny and Peter O'Loughlin, Clare (fiddles)
N:As played (P O'L much the louder)
Z:Bernie Stocks
H:Played with 48
M:6/8
K:G
|: edB G2A | B2e dBd | edB G2A | BAF GFE | DB,D G2A | Bed Bcd | edB gdB | BAG ABd :|
|: e2f gfg | eag fed | e2f gfg | efg a3 | bag agf | gfe def | gfe fdB | BAG ABd :|
